X:1
T:Goldberg Variations: Variation XVIII 
T:BWV 988
T:J. S. Bach
%%score { ( 1 2 ) | 3 }
L:1/8
Q:1/4=184
M:4/4
K:G
V:1 treble nm="Harp"
V:2 treble 
V:3 bass 
V:1
 z4 g4- | g4 f4- | f2 gf e4- | e2 d^c d4 | z4 e4- | e2 de f4- | f2 ag a4- | agaf g4 | z4 e4- | %9
 e4 d4- | d2 ef g4- | gfge f4- | f2 f2 e4- | e2 e2 d4- | d2 g2 ^cd e2- | e4 d4 | z4 g4- | g4 f4- | %18
 f2 gf e4- | e2 d^c d4 | z4 e4- | e2 de f4- | f2 ag a4- | agaf g4 | z4 e4- | e4 d4- | d2 ef g4- | %27
 gfge f4- | f2 f2 e4- | e2 e2 d4- | d2 g2 ^cd e2- | e4 d4 | z4 a4- | a4 g4- | g2 ab c'4- | %35
 c'b c'2 b4 | z4 e4- | e4 ^d2 e2 | f6 ef | g4- gfed | c2 z2 a4- | a4 g4- | g2 ab c'4- | %43
 c'bc'a b4- | b2 b2 a4- | a2 a2 g4- | g2 c'2 fg a2- | a4 g4 | z4 a4- | a4 g4- | g2 ab c'4- | %51
 c'b c'2 b4 | z4 e4- | e4 ^d2 e2 | f6 ef | g4- gfed | c2 z2 a4- | a4 g4- | g2 ab c'4- | %59
 c'bc'a b4- | b2 b2 a4- | a2 a2 g4- | g2 c'2 fg a2- | a4 !fermata!g4 |] %64
V:2
 B8 | A6 BA | G6 FE | F4 z4 | G6 FG | A6 cB | c4- cBcA | B4 z4 | G8 | F6 GA | B4- BABG | A6 A2 | %12
 G6 G2 | F6 B2 | EF G6 | F8 | B8 | A6 BA | G6 FE | F4 z4 | G6 FG | A6 cB | c4- cBcA | B4 z4 | G8 | %25
 F6 GA | B4- BABG | A6 A2 | G6 G2 | F6 B2 | EF G6 | F8 | c8 | B6 cd | e4- e^d e2 | ^d4 z4 | G8 | %37
 F2 G2 A4- | A2 GA B4- | BAGF E2 z2 | c8 | B6 cd | e4- edec | d6 d2 | c6 c2 | B6 e2 | AB c6 | B8 | %48
 c8 | B6 cd | e4- e^d e2 | ^d4 z4 | G8 | F2 G2 A4- | A2 GA B4- | BAGF E2 z2 | c8 | B6 cd | %58
 e4- edec | d6 d2 | c6 c2 | B6 e2 | AB c6 | B8 |] %64
V:3
 z2 G,A, B,2 C2 | D2 D,2 D4 | z2 ED ^C2 A,2 | D2 D,2 D2 C2 | B,2 A,B, C2 C,2 | C2 B,C D2 A,2 | %6
 D,2 F,E, F,2 D,2 | G,2 D,2 G,,2 G,A, | B,2 A,B, ^C2 B,C | D2 ^C2 B,2 A,2 | G,2 F,2 E,2 D,2 | %11
 ^C,2 B,,C, D,2 C,D, | B,,2 A,,B,, ^C,2 B,,C, | ^A,,2 ^G,,A,, B,,=A,,=G,,F,, | %14
 G,,2 E,,2 A,,2 A,,,2 | D,,2 A,,2 D,4 | z2 G,A, B,2 C2 | D2 D,2 D4 | z2 ED ^C2 A,2 | D2 D,2 D2 C2 | %20
 B,2 A,B, C2 C,2 | C2 B,C D2 A,2 | D,2 F,E, F,2 D,2 | G,2 D,2 G,,2 G,A, | B,2 A,B, ^C2 B,C | %25
 D2 ^C2 B,2 A,2 | G,2 F,2 E,2 D,2 | ^C,2 B,,C, D,2 C,D, | B,,2 A,,B,, ^C,2 B,,C, | %29
 ^A,,2 ^G,,A,, B,,=A,,=G,,F,, | G,,2 E,,2 A,,2 A,,,2 | D,,2 A,,2 D,4 | z2 D,E, F,2 D,2 | %33
 G,2 G,,2 G,2 A,B, | C2 B,2 A,2 G,A, | B,3 A, G,F,E,^D, | E,2 ED C2 B,2 | A,2 B,C F,2 G,A, | %38
 ^D,2 E,F, B,,2 ^C,D, | E,2[K:treble] E^D E2 FG | A2 GA F2 EF | G2 F2 E2 D2 | %42
[K:bass] C2 B,2 A,2 G,2 | F,2 E,F, G,2 F,G, | E,2 D,E, F,2 E,F, | ^D,2 ^C,D, E,=D,=C,B,, | %46
 C,2 A,,2 D,2 D,,2 | G,,2 D,2 G,4 | z2 D,E, F,2 D,2 | G,2 G,,2 G,2 A,B, | C2 B,2 A,2 G,A, | %51
 B,3 A, G,F,E,^D, | E,2 ED C2 B,2 | A,2 B,C F,2 G,A, | ^D,2 E,F, B,,2 ^C,D, | %55
 E,2[K:treble] E^D E2 FG | A2 GA F2 EF | G2 F2 E2 D2 |[K:bass] C2 B,2 A,2 G,2 | F,2 E,F, G,2 F,G, | %60
 E,2 D,E, F,2 E,F, | ^D,2 ^C,D, E,=D,=C,B,, | C,2 A,,2 D,2 D,,2 | G,,2 D,2 !fermata!G,4 |] %64

